FlatUX/src/svg/Nintendo - Family Computer Disk System-content.svg

<svg enable-background="new 0 0 256 256" viewBox="0 0 256 256" xmlns="http://www.w3.org/2000/svg"><path d="m223.238 12.019h-19.048l-4.19 3.981h-48.19l-3.81-3.981h-40l-3.81 3.981h-47.619l-4.762-3.981h-19.047c-2.633 0-4.762 2.074-4.762 4.64v222.701c0 2.187 2.517 4.64 4.762 4.64h190.476c3.188 0 4.762-2.089 4.762-4.64v-222.701c0-2.566-2.142-4.895-4.762-4.64z" fill="#eec41b"/><path d="m152 16-4-3.981h-40l-4 3.981v102.73c0 14.363 9.599 25.27 23.962 25.27 14.124 0 24.038-11.146 24.038-25.27 0-.119 0-102.73 0-102.73z" fill="#f19c21"/><path d="m120 20h16v68h-16z" fill="#223140"/><path d="m188.923 154h-121.846c-3.902 0-7.077 3.688-7.077 8.222v43.556c0 4.534 3.175 8.222 7.077 8.222h121.846c3.902 0 7.077-3.688 7.077-8.222v-43.556c0-4.534-3.175-8.222-7.077-8.222z" fill="#f19c21"/><path d="m188.923 156c2.808 0 5.077 2.781 5.077 6.222v43.556c0 3.441-2.269 6.222-5.077 6.222h-121.846c-2.808 0-5.077-2.781-5.077-6.222v-43.556c0-3.441 2.269-6.222 5.077-6.222z" fill="#1b80bb"/><g fill="#f19c21"><path d="m32 200h20v12h-20z"/><path d="m204 200h20v14h-20z"/><path d="m28 52.19h20v12h-20z"/><path d="m208 52h20v12h-20z"/></g><circle cx="128" cy="120" fill="#223140" r="22"/><circle cx="128" cy="120" fill="#edefef" r="18"/><circle cx="128" cy="120" fill="#dadfe0" r="8"/><path d="m32 32v12h2v-10h12v10h2v-12z" fill="#f19c21"/><path d="m208 32v12h2v-10h12v10h2v-12z" fill="#f19c21"/></svg>

<svg xmlns="http://www.w3.org/2000/svg" viewBox="0 0 256 256"><path fill="#eec41b" d="M223.238 12.019H204.19L200 16h-48.19L148 12.019h-40L104.19 16H56.571l-4.762-3.981H32.762c-2.633 0-4.762 2.074-4.762 4.64V239.36c0 2.187 2.517 4.64 4.762 4.64h190.476c3.188 0 4.762-2.089 4.762-4.64V16.659c0-2.566-2.142-4.895-4.762-4.64"/><path fill="#f19c21" d="m152 16-4-3.981h-40L104 16v102.73c0 14.363 9.599 25.27 23.962 25.27C142.086 144 152 132.854 152 118.73z"/><path fill="#223140" d="M120 20h16v68h-16z"/><path fill="#f19c21" d="M188.923 154H67.077c-3.902 0-7.077 3.688-7.077 8.222v43.556c0 4.534 3.175 8.222 7.077 8.222h121.846c3.902 0 7.077-3.688 7.077-8.222v-43.556c0-4.534-3.175-8.222-7.077-8.222"/><path fill="#1b80bb" d="M188.923 156c2.808 0 5.077 2.781 5.077 6.222v43.556c0 3.441-2.269 6.222-5.077 6.222H67.077c-2.808 0-5.077-2.781-5.077-6.222v-43.556c0-3.441 2.269-6.222 5.077-6.222z"/><path fill="#f19c21" d="M32 200h20v12H32zm172 0h20v14h-20zM28 52.19h20v12H28zM208 52h20v12h-20z"/><circle cx="128" cy="120" r="22" fill="#223140"/><circle cx="128" cy="120" r="18" fill="#edefef"/><circle cx="128" cy="120" r="8" fill="#dadfe0"/><path fill="#f19c21" d="M32 32v12h2V34h12v10h2V32zm176 0v12h2V34h12v10h2V32z"/></svg>
